X: 14926
T: Gavotenn Ar Menez
R: barndance
M: 4/4
K: Bminor
"Bm"Bcde f"D"gf2|"Em"e/d/ce"A"c A2"Bm"B2|"Bm"Bcde f"D"gf2|"Em"e/d/ce"A"c A2"Bm"Bf||
"D"ffdf a^g"A"e2|efg/f/e "Bm"f2ff|"A"efge fe"G"de|d/c/Bcd "A"e2f>e|
"Bm"fbag f"D"efg|"Em"f/e/de"A"c A2"Bm"B2||

